!! 00000] TT[WS
!!!OTL: Pie baicai
!!!ARE: Asia, China, Shanxi Yanbai
!! Ethnic Group: Han
!! WII, 79 (2)
!!!SCT: J0517
!!!YEM: Copyright 1995, estate of Helmut Schaffrath.
**kern
*ICvox
*Ivox
*M2/4
*k[f#]
*G:
{8g
8g
8f#
16e
16d
=1
8.f#
16e
4d
=2
16ee
16gg
8b
16dd
16ee
16b
16a
=3
4g
4e}
=4
{16ee
16gg
16ee
16b
16dd
16cc#
8b
=5
8a
16b
16a
4g
=6
8cc
8e
8g
16f#
16e
=7
2d}
=8
{16ee
16gg
16ee
16b
8dd
16cc#
16b
=9
8a
16b
16a
4g
=10
8cc
8e
8g
16F#
16e
=11
2d}
==
!!!AGN: Xiaodiao. Qingge, Sichun
!!!ONB: ESAC (Essen Associative Code) Database: CHINA
!!!AMT: simple duple
!!!AIN: vox
!!!EED: Helmut Schaffrath
!!!EEV: 1.0
*-
